usr/share/icons/biglinux-icons-material/scalable/apps/pcsx-icon.svg

<?xml version="1.0" encoding="UTF-8" standalone="no"?>
<svg
   width="24"
   height="24"
   viewBox="0 0 6.349875 6.349875"
   version="1.1"
   id="svg3"
   sodipodi:docname="pcsxr-icon.svg"
   inkscape:version="1.3 (0e150ed6c4, 2023-07-21)"
   xmlns:inkscape="http://www.inkscape.org/namespaces/inkscape"
   xmlns:sodipodi="http://sodipodi.sourceforge.net/DTD/sodipodi-0.dtd"
   xmlns="http://www.w3.org/2000/svg"
   xmlns:svg="http://www.w3.org/2000/svg">
  <sodipodi:namedview
     id="namedview3"
     pagecolor="#ffffff"
     bordercolor="#000000"
     borderopacity="0.25"
     inkscape:showpageshadow="2"
     inkscape:pageopacity="0.0"
     inkscape:pagecheckerboard="0"
     inkscape:deskcolor="#d1d1d1"
     inkscape:zoom="2.2400922"
     inkscape:cx="-58.702941"
     inkscape:cy="31.918329"
     inkscape:window-width="2560"
     inkscape:window-height="998"
     inkscape:window-x="0"
     inkscape:window-y="0"
     inkscape:window-maximized="1"
     inkscape:current-layer="svg3" />
  <defs
     id="defs2">
    <linearGradient
       id="a"
       x1="399.57001"
       x2="399.57001"
       y1="545.79999"
       y2="517.79999"
       gradientTransform="matrix(2.1429,0,0,2.1429,-826.36,-1107.5)"
       gradientUnits="userSpaceOnUse">
      <stop
         stop-color="#3889e9"
         offset="0"
         id="stop1" />
      <stop
         stop-color="#5ea5fb"
         offset="1"
         id="stop2" />
    </linearGradient>
    <radialGradient
       id="paint0_radial_1_112"
       cx="0"
       cy="0"
       r="1"
       gradientUnits="userSpaceOnUse"
       gradientTransform="matrix(0,5.8207192,-5.8207192,0,3.1749366,0.26457812)">
      <stop
         stop-color="#78BDFF"
         id="stop247" />
      <stop
         offset="1"
         stop-color="#1A5084"
         id="stop249"
         style="stop-color:#476acc;stop-opacity:1;" />
    </radialGradient>
  </defs>
  <path
     fill-rule="evenodd"
     clip-rule="evenodd"
     d="m 2.5389019,0.29463123 c 0.031708,3.3866e-4 0.062015,-0.003702 0.090922,-0.0121172 0.379877,-0.024885 0.7597276,-0.0238756 1.1395538,0.003029 0.3443923,0.0268339 0.677774,0.10155664 1.000145,0.22416696 C 5.3054654,0.7303516 5.6721706,1.1130518 5.8696628,1.657808 5.9826089,1.9857886 6.0493048,2.3230507 6.0697016,2.6695872 6.0979316,3.1047489 6.0878436,3.5389504 6.0393856,3.9721818 6.0031273,4.2766783 5.924329,4.5695089 5.8029914,4.8506739 5.5779478,5.3381591 5.2132555,5.6744027 4.7089145,5.8594288 4.3002273,5.9975253 3.8799471,6.0702116 3.4481226,6.0775359 2.9623836,6.1027819 2.4815121,6.0664289 2.0054937,5.9684702 1.1293227,5.7733065 0.5888398,5.2391344 0.38405477,4.3659779 0.29715046,3.9729339 0.25775092,3.5750878 0.2658563,3.1724396 0.25615735,2.7443014 0.30161834,2.3222266 0.40223894,1.9062101 0.61691992,1.0898178 1.1351725,0.58392703 1.9570022,0.38853905 2.1485015,0.34172156 2.3424696,0.31041871 2.5389019,0.29463123 Z"
     fill="url(#paint0_radial_1_112)"
     id="path241"
     style="fill:url(#paint0_radial_1_112);stroke-width:0.24253" />
  <path
     d="m 3.1747452,2.1167684 c -1.3224482,0 -1.7195655,0.3978845 -1.7195655,2.0507536 0,0.2644897 0.9260965,-0.3304205 1.1905865,-0.7271551 h 1.057959 c 0.264873,0.3967346 1.19097,0.9881949 1.19097,0.7275384 0,-1.6536357 -0.396734,-2.0511369 -1.719566,-2.0511369 z M 3.9685982,2.513503 A 0.13224485,0.13224485 0 0 1 4.1008432,2.6457478 0.13224485,0.13224485 0 0 1 3.9685982,2.7779927 0.13224485,0.13224485 0 0 1 3.8363533,2.6457478 0.13224485,0.13224485 0 0 1 3.9685982,2.513503 Z m -1.587322,0.00115 h 0.132245 v 0.2644897 h 0.26449 v 0.1326282 h -0.26449 V 3.1762605 H 2.3812762 V 2.9117708 H 2.1167867 V 2.779526 h 0.2644895 z m 1.322449,0.2633398 A 0.13224485,0.13224485 0 0 1 3.8363533,2.9102375 0.13224485,0.13224485 0 0 1 3.7041082,3.0424824 0.13224485,0.13224485 0 0 1 3.5718632,2.9102375 0.13224485,0.13224485 0 0 1 3.7041082,2.7779927 Z m 0.529363,0 a 0.13224485,0.13224485 0 0 1 0.132244,0.1322447 0.13224485,0.13224485 0 0 1 -0.132244,0.1322449 0.13224485,0.13224485 0 0 1 -0.132245,-0.1322449 0.13224485,0.13224485 0 0 1 0.132245,-0.1322447 z m -0.26449,0.2644896 A 0.13224485,0.13224485 0 0 1 4.1008432,3.1751106 0.13224485,0.13224485 0 0 1 3.9685982,3.3073554 0.13224485,0.13224485 0 0 1 3.8363533,3.1751106 0.13224485,0.13224485 0 0 1 3.9685982,3.0424824 Z"
     fill="#ffffff"
     id="path4"
     style="stroke-width:1" />
</svg>

<svg xmlns="http://www.w3.org/2000/svg" width="24" height="24" viewBox="0 0 6.35 6.35"><defs><radialGradient id="a" cx="0" cy="0" r="1" gradientTransform="rotate(90 1.455 1.72) scale(5.82072)" gradientUnits="userSpaceOnUse"><stop stop-color="#78BDFF"/><stop offset="1" stop-color="#1A5084" style="stop-color:#476acc;stop-opacity:1"/></radialGradient></defs><path fill="url(#a)" fill-rule="evenodd" d="M2.539.295a.312.312 0 0 0 .09-.012c.38-.025.76-.024 1.14.003.345.026.678.101 1 .224.536.22.903.603 1.1 1.148.114.328.18.665.2 1.012.029.435.019.869-.03 1.302a3.144 3.144 0 0 1-.236.879 1.87 1.87 0 0 1-1.094 1.008c-.409.139-.83.211-1.26.219a5.669 5.669 0 0 1-1.444-.11C1.13 5.773.59 5.24.385 4.366a5.04 5.04 0 0 1-.12-1.194c-.009-.428.037-.85.137-1.266C.617 1.09 1.135.584 1.957.39c.192-.047.385-.079.582-.094Z" clip-rule="evenodd" style="fill:url(#a);stroke-width:.24253"/><path fill="#fff" d="M3.175 2.117c-1.323 0-1.72.398-1.72 2.05 0 .265.926-.33 1.19-.727h1.059c.265.397 1.19.989 1.19.728 0-1.654-.396-2.051-1.719-2.051zm.794.397a.132.132 0 0 1 .132.132.132.132 0 0 1-.132.132.132.132 0 0 1-.133-.132.132.132 0 0 1 .133-.132Zm-1.588 0h.133v.265h.264v.133h-.264v.264H2.38v-.264h-.264V2.78h.264zm1.323.264a.132.132 0 0 1 .132.132.132.132 0 0 1-.132.132.132.132 0 0 1-.132-.132.132.132 0 0 1 .132-.132Zm.53 0a.132.132 0 0 1 .131.132.132.132 0 0 1-.132.132.132.132 0 0 1-.132-.132.132.132 0 0 1 .132-.132zm-.265.264a.132.132 0 0 1 .132.133.132.132 0 0 1-.132.132.132.132 0 0 1-.133-.132.132.132 0 0 1 .133-.133Z" style="stroke-width:1"/></svg>
